Numix-GalliumOS/32/mimetypes/text-x-python.svg

<?xml version="1.0" encoding="UTF-8" standalone="no"?>
<svg
   xmlns:dc="http://purl.org/dc/elements/1.1/"
   xmlns:cc="http://creativecommons.org/ns#"
   xmlns:rdf="http://www.w3.org/1999/02/22-rdf-syntax-ns#"
   xmlns:svg="http://www.w3.org/2000/svg"
   xmlns="http://www.w3.org/2000/svg"
   xmlns:sodipodi="http://sodipodi.sourceforge.net/DTD/sodipodi-0.dtd"
   xmlns:inkscape="http://www.inkscape.org/namespaces/inkscape"
   width="32"
   height="32"
   viewBox="0 0 32 32"
   id="svg2"
   version="1.1"
   inkscape:version="0.48.5 r10040"
   sodipodi:docname="text-x-python.svg">
  <metadata
     id="metadata20">
    <rdf:RDF>
      <cc:Work
         rdf:about="">
        <dc:format>image/svg+xml</dc:format>
        <dc:type
           rdf:resource="http://purl.org/dc/dcmitype/StillImage" />
      </cc:Work>
    </rdf:RDF>
  </metadata>
  <defs
     id="defs18" />
  <sodipodi:namedview
     pagecolor="#ffffff"
     bordercolor="#666666"
     borderopacity="1"
     objecttolerance="10"
     gridtolerance="10"
     guidetolerance="10"
     inkscape:pageopacity="0"
     inkscape:pageshadow="2"
     inkscape:window-width="1280"
     inkscape:window-height="970"
     id="namedview16"
     showgrid="false"
     inkscape:zoom="7.375"
     inkscape:cx="16"
     inkscape:cy="16"
     inkscape:window-x="0"
     inkscape:window-y="0"
     inkscape:window-maximized="1"
     inkscape:current-layer="svg2" />
  <path
     style="fill:#366994;fill-opacity:1"
     d="M 5.3358877,2.973e-4 C 4.6484137,3.123e-4 4,0.6767882 4,1.3940315 L 4,30.606268 C 4,31.282757 4.6874737,32 5.3358877,32 L 26.66322,32 c 0.648414,0 1.335888,-0.717243 1.335888,-1.393732 L 28,9 19,0 z"
     id="path4-1"
     inkscape:connector-curvature="0"
     sodipodi:nodetypes="ssssssccs" />
  <path
     style="fill:#000000;fill-opacity:0.19599998"
     d="m 21,9 7,7 0,-7 z"
     id="path6-4"
     inkscape:connector-curvature="0"
     sodipodi:nodetypes="cccc" />
  <path
     style="fill:#ffffff;fill-opacity:0.39200003"
     d="M 19.000306,2.973e-4 27.9919,9 20.378638,9 C 19.705687,9 19.000306,8.2865104 19.000306,7.6135598 z"
     id="path8-6"
     inkscape:connector-curvature="0"
     sodipodi:nodetypes="ccssc" />
  <g
     style="fill:#ffffff"
     id="g10"
     transform="translate(0,0.99973442)">
    <path
       d="m 16.144531,10 c -0.542969,0.0039 -1.066406,0.04687 -1.523437,0.125 -1.339844,0.234375 -1.625,0.304688 -1.625,1.207031 l 0,2 3.335937,0 0,0.667969 -4.671875,0 c -0.917968,0 -1.519531,0.5625 -1.769531,1.605469 -0.292969,1.195312 -0.304687,1.9375 0,3.1875 0.222656,0.925781 0.851563,1.875 1.769531,1.875 l 0.667969,0 0,-2 c 0,-1.035157 0.929687,-2 2,-2 l 3.335937,0 C 18.546875,16.667969 19,16.210938 19,15.332031 L 19,12 C 19,11.148438 18.648438,10.265625 17.789062,10.125 17.246094,10.035156 16.683594,9.996094 16.144531,10 z m -1.148437,1.332031 c 0.371094,0 0.667968,0.300781 0.667968,0.667969 0,0.367188 -0.296874,0.667969 -0.667968,0.667969 -0.367188,0 -0.667969,-0.300781 -0.667969,-0.667969 0,-0.367188 0.300781,-0.667969 0.667969,-0.667969 z"
       id="path12"
       inkscape:connector-curvature="0" />
    <path
       d="m 15.855469,24 c 0.542969,-0.0039 1.066406,-0.04687 1.523437,-0.125 1.339844,-0.234375 1.625,-0.304688 1.625,-1.207031 l 0,-2 -3.335937,0 0,-0.667969 4.671875,0 c 0.917968,0 1.519531,-0.5625 1.769531,-1.605469 0.292969,-1.195312 0.304687,-1.9375 0,-3.1875 -0.222656,-0.925781 -0.851563,-1.875 -1.769531,-1.875 l -0.667969,0 0,2 c 0,1.035157 -0.929687,2 -2,2 l -3.335937,0 C 13.453125,17.332031 13,17.789062 13,18.667969 L 13,22 c 0,0.851562 0.351562,1.734375 1.210938,1.875 0.542968,0.08984 1.105468,0.128906 1.644531,0.125 z m 1.148437,-1.332031 c -0.371094,0 -0.667968,-0.300781 -0.667968,-0.667969 0,-0.367188 0.296874,-0.667969 0.667968,-0.667969 0.367188,0 0.667969,0.300781 0.667969,0.667969 0,0.367188 -0.300781,0.667969 -0.667969,0.667969 z"
       id="path14"
       inkscape:connector-curvature="0" />
  </g>
</svg>

<svg xmlns="http://www.w3.org/2000/svg" viewBox="0 0 32 32">
 <path d="m 5.336 0 c -0.687 0 -1.336 0.676 -1.336 1.394 l 0 29.21 c 0 0.676 0.687 1.394 1.336 1.394 l 21.327 0 c 0.648 0 1.336 -0.717 1.336 -1.394 l 0.001 -21.606 -9 -9 z" style="fill:#366994;fill-opacity:1"/>
 <path d="m 21 9 7 7 0 -7 z" style="fill:#000;fill-opacity:0.196"/>
 <path d="m 19 0 8.992 9 -7.613 0 c -0.673 0 -1.378 -0.713 -1.378 -1.386 z" style="fill:#fff;fill-opacity:0.392"/>
 <g transform="translate(0,0.99973442)" style="fill:#fff">
  <path d="m 16.14 10 c -0.543 0.004 -1.066 0.047 -1.523 0.125 -1.34 0.234 -1.625 0.305 -1.625 1.207 l 0 2 3.336 0 0 0.668 -4.672 0 c -0.918 0 -1.52 0.563 -1.77 1.605 -0.293 1.195 -0.305 1.938 0 3.188 0.223 0.926 0.852 1.875 1.77 1.875 l 0.668 0 0 -2 c 0 -1.035 0.93 -2 2 -2 l 3.336 0 c 0.883 0 1.336 -0.457 1.336 -1.336 l 0 -3.332 c 0 -0.852 -0.352 -1.734 -1.211 -1.875 -0.543 -0.09 -1.105 -0.129 -1.645 -0.125 z m -1.148 1.332 c 0.371 0 0.668 0.301 0.668 0.668 0 0.367 -0.297 0.668 -0.668 0.668 -0.367 0 -0.668 -0.301 -0.668 -0.668 0 -0.367 0.301 -0.668 0.668 -0.668 z"/>
  <path d="m 15.855 24 c 0.543 -0.004 1.066 -0.047 1.523 -0.125 1.34 -0.234 1.625 -0.305 1.625 -1.207 l 0 -2 -3.336 0 0 -0.668 4.672 0 c 0.918 0 1.52 -0.563 1.77 -1.605 0.293 -1.195 0.305 -1.938 0 -3.188 -0.223 -0.926 -0.852 -1.875 -1.77 -1.875 l -0.668 0 0 2 c 0 1.035 -0.93 2 -2 2 l -3.336 0 c -0.883 0 -1.336 0.457 -1.336 1.336 l 0 3.332 c 0 0.852 0.352 1.734 1.211 1.875 0.543 0.09 1.105 0.129 1.645 0.125 z m 1.148 -1.332 c -0.371 0 -0.668 -0.301 -0.668 -0.668 0 -0.367 0.297 -0.668 0.668 -0.668 0.367 0 0.668 0.301 0.668 0.668 0 0.367 -0.301 0.668 -0.668 0.668 z"/>
 </g>
</svg>
